X:1
T: Additional to Meg Merrilees
C:
R:Reel
Q: 232
K:A
M:4/4
L:1/8
|:af|d2 d2 d2 cd|e2 e2 e2 fe|dc BA Bc de|fg af d2 af|
d2 d2 d2 cd|e2 e2 e2 fe|dc BA Bd ce|d2 d2 d2:|
|:de|f2 f2 f2 ef|g2 g2 g2 gf|e2 e2 e2 de|f2 f2 fg af|
d2 d2 d2 cd|e2 e2 e2 fe|dc BA Bd ce|d2 d2 d2:|
